src/assets/outline/Mask1.svg

<svg width="24" height="24" viewBox="0 0 24 24"  xmlns="http://www.w3.org/2000/svg">
<path d="M4.92999 19.82C4.72999 19.82 4.54002 19.74 4.40002 19.6C2.37002 17.57 1.25 14.87 1.25 12C1.25 6.07 6.07 1.25 12 1.25C14.87 1.25 17.57 2.37 19.6 4.4C19.74 4.54 19.82 4.73 19.82 4.93C19.82 5.13 19.74 5.32 19.6 5.46L5.46002 19.6C5.32002 19.74 5.12999 19.82 4.92999 19.82ZM12 2.75C6.9 2.75 2.75 6.9 2.75 12C2.75 14.22 3.53001 16.32 4.95001 17.99L17.99 4.95C16.32 3.53 14.22 2.75 12 2.75Z" />
<path d="M12.0002 22.7501C9.13018 22.7501 6.43021 21.6301 4.40021 19.6001C4.26021 19.4601 4.18018 19.2701 4.18018 19.0701C4.18018 18.8701 4.26021 18.6801 4.40021 18.5401L18.5402 4.40012C18.8302 4.11012 19.3102 4.11012 19.6002 4.40012C21.6302 6.43012 22.7502 9.13012 22.7502 12.0001C22.7502 17.9301 17.9302 22.7501 12.0002 22.7501ZM6.01019 19.0501C7.68019 20.4701 9.78018 21.2501 12.0002 21.2501C17.1002 21.2501 21.2502 17.1001 21.2502 12.0001C21.2502 9.78012 20.4702 7.68012 19.0502 6.01012L6.01019 19.0501Z" />
<path d="M13.4099 22.6502C13.2199 22.6502 13.03 22.5802 12.88 22.4302L7.21994 16.7702C6.92994 16.4802 6.92994 16.0002 7.21994 15.7102C7.50994 15.4202 7.99 15.4202 8.28 15.7102L13.94 21.3702C14.23 21.6602 14.23 22.1402 13.94 22.4302C13.8 22.5802 13.6099 22.6502 13.4099 22.6502Z" />
<path d="M17.87 20.0301C17.68 20.0301 17.49 19.9601 17.34 19.8101L10.76 13.2301C10.47 12.9401 10.47 12.4601 10.76 12.1701C11.05 11.8801 11.53 11.8801 11.82 12.1701L18.4 18.7501C18.69 19.0401 18.69 19.5201 18.4 19.8101C18.25 19.9601 18.06 20.0301 17.87 20.0301Z" />
<path d="M21.12 16.2201C20.93 16.2201 20.7401 16.1501 20.5901 16.0001L14.3 9.71011C14.01 9.42011 14.01 8.94012 14.3 8.65012C14.59 8.36012 15.07 8.36012 15.36 8.65012L21.6501 14.9401C21.9401 15.2301 21.9401 15.7101 21.6501 16.0001C21.5101 16.1401 21.32 16.2201 21.12 16.2201Z" />
</svg>

<?xml version="1.0" encoding="UTF-8"?>
<svg width="24" height="24" viewBox="0 0 24 24" xmlns="http://www.w3.org/2000/svg">
 <path d="m4.93 19.82c-0.2 0-0.38997-0.08-0.52997-0.22-2.03-2.03-3.15-4.73-3.15-7.6 0-5.93 4.82-10.75 10.75-10.75 2.87 0 5.57 1.12 7.6 3.15 0.14 0.14 0.22 0.33 0.22 0.53s-0.08 0.39-0.22 0.53l-14.14 14.14c-0.14 0.14-0.33003 0.22-0.53003 0.22zm7.07-17.07c-5.1 0-9.25 4.15-9.25 9.25 0 2.22 0.78001 4.32 2.2 5.99l13.04-13.04c-1.67-1.42-3.77-2.2-5.99-2.2z"/>
 <path d="m12 22.75c-2.87 0-5.57-1.12-7.6-3.15-0.14-0.14-0.22003-0.33-0.22003-0.53s0.08003-0.39 0.22003-0.53l14.14-14.14c0.29-0.29 0.77-0.29 1.06 0 2.03 2.03 3.15 4.73 3.15 7.6 0 5.93-4.82 10.75-10.75 10.75zm-5.99-3.7c1.67 1.42 3.77 2.2 5.99 2.2 5.1 0 9.25-4.15 9.25-9.25 0-2.22-0.78-4.32-2.2-5.99l-13.04 13.04z"/>
 <path d="m13.41 22.65c-0.19 0-0.3799-0.07-0.5299-0.22l-5.6601-5.66c-0.29-0.29-0.29-0.77 0-1.06s0.77006-0.29 1.0601 0l5.66 5.66c0.29 0.29 0.29 0.77 0 1.06-0.14 0.15-0.3301 0.22-0.5301 0.22z"/>
 <path d="m17.87 20.03c-0.19 0-0.38-0.07-0.53-0.22l-6.58-6.58c-0.29-0.29-0.29-0.77 0-1.06s0.77-0.29 1.06 0l6.58 6.58c0.29 0.29 0.29 0.77 0 1.06-0.15 0.15-0.34 0.22-0.53 0.22z"/>
 <path d="m21.12 16.22c-0.19 0-0.3799-0.07-0.5299-0.22l-6.2901-6.29c-0.29-0.29-0.29-0.76999 0-1.06s0.77-0.29 1.06 0l6.2901 6.29c0.29 0.29 0.29 0.77 0 1.06-0.14 0.14-0.3301 0.22-0.5301 0.22z"/>
</svg>
